X:1
T:2 Songs, Op.60
T:The Torch
T:To Yvonne 
T:2 Songs, Op. 60
T:Edward Elgar
T:1. The Torch
T:Paraphrased by Pietro d'Alba and Edward Elgar
T:Creative Commons copyright waiver (CC0 1.0 Universal)
T:Creative Commons copyright waiver (CC0 1.0 Universal)
T:Creative Commons copyright waiver (CC0 1.0 Universal)
T:Creative Commons copyright waiver (CC0 1.0 Universal)
C:Edward Elgar
Z:Pietro d'Alba and Edward Elgar - Pietro d'Alba (Peter Rabbit) is probably a pseudonym for Elgar.
Z:Creative Commons copyright waiver (CC0 1.0 Universal)
%%score 1 { ( 2 4 ) | 3 }
L:1/8
Q:1/4=120
M:4/4
K:F
V:1 treble nm="Voice"
V:2 treble nm="Piano"
V:4 treble 
V:3 bass 
V:1
"^Allegro con fuoco" z8 |!ff!"^largamente e rubato" F A/ c/ c2- c !tenuto!d B/ A/ G- | %2
w: |Come, O my love! _ Come, fly to me;|
 G G/ B/ B2- B c A/ G/ F |!<(! _E G/!<)! B/ B2- B c"^ten." d/ c/ B | %4
w: _ All my soul  _ Cries out for thee:|Haste to thy home,  _ I long for thee,|
"^rall."[Q:1/4=110] !tenuto!A G/ F/"^accel."[Q:1/4=114] G/ F/[Q:1/4=118] E"^rit."[Q:1/4=100] F/!<(! !fermata!E!<)! D/ C2 || %5
w: Faint for thee, Wor- ship thee on- ly, – but Come!|
!p!"^poco meno mosso"[Q:1/4=112] G G/ A/ B3/2 G/ F F/ G/ (3!>!A G F | %6
w: Dark is the wood, –The track's e- ver lone- ly and|
[Q:1/4=120] E4 z2[Q:1/4=115] z"^cresc." D | G G/ A/ (3(!fermata!cB) G F F/ G/ (3!>!A G3/2 F/ | %8
w: gray: But|joy- ous the blaze * That wel- comes and shews thee the|
[Q:1/4=118] E4[Q:1/4=122] z4 |[Q:1/4=115] z8[Q:1/4=110] || %10
w: way.||
"^Tempo primo"!pp!"^molto cantabile"[Q:1/4=120] (F A/ c/) c2- c (d B/ A/) G- | %11
w: Come, O my love!  _ Come, fly to me; |
 G (G/ B/ B2- B) (c A/ G/ F) | %12
w: _ All my soul  _ Cries out for thee:|
"^cresc." _E G/ B/!<(! B2-!<)! B"^allargando" c!f![Q:1/4=115] !fermata!_d/ c/ B | %13
w: Haste to thy rest,  _ I long for thee,|
!p!"^rit."[Q:1/4=110] _A G/ F/[Q:1/4=115]"^accel. e cresc." G/ F/ _E F/ E[Q:1/4=120] D/ !fermata!C2 || %14
w: Sigh for thee, Faint for thee; Come to my breast.|
!f!"^meno mosso"[Q:1/4=115] G G/ A/ B G F F/ G/ A/ G F/ | %15
w: Cold is the stream, –The ford is a dan- ger to|
[Q:1/4=120] E4 z2[Q:1/4=122] z[Q:1/4=115]"^cresc." D[Q:1/4=125] | %16
w: thee: My|
 G G/ A/!ff! (3!fermata!c B G F/ F G/ !>!A/ G F/ | E4 z4[Q:1/4=120][Q:1/4=115] | z8 | %19
w: heart is a flame, As the bea- con that lights thee to|me.||
!ff!"^Come prima"[Q:1/4=120] F A/ c/ c2- c d B/ A/ G- | G G/ B/ B2- B c A/ G/ F | %21
w: Come, O my love!  _ Come, fly to me; |_ All my soul  _ Cries out for thee:|
 _E G/ B/ B2- B c"^allargando"[Q:1/4=115] _d/ c/ B | %22
w: Haste to thy home,  _ I long for thee,|
 _A G/ F/"^tutta forza" !fermata!c/ B/!<(! A{_d} G/"^fermata over second and fourth acciaccatura in original score"{!fermata!d} !fermata!F!<)!{c} E/{!fermata!f} !fermata!F2 | %23
w: Faint for thee, Wor- ship thee on- ly; but Come!|
 !fermata!z8 |] %24
w: |
V:2
!p!!<(!"^molto cresc." !///-!A,3 F,3-!<)! [F,A,] (A,/4F,/4A,/4C/4) | %1
!ff!"_colla parte" !tenuto![F,A,F]2 z2!f! !tenuto![E,B,D]2 z2 | %2
!f! !tenuto![B,DE]2 z2!f! .[G,B,D] z!f! [A,D]2 |!f! .[_E,B,_E]2 z E !>![_EB]!>![Gc] (d/c/B) | %4
"_colla parte" AG/F/ G/F/E F/!fermata!ED/ [E,C]2 || %5
!p!"_colla parte" (!tenuto![_EG]2 !tenuto![_B,D_B]2 !tenuto![B,DF]2 !tenuto![A,DA]2) | %6
"_accel."!<(! E(E/F/) (G!<)!E)!>(! D(D/E/)"^ten." .F/"_rit.".E/.D!>)! | %7
"_cresc." [G,CG]2 !fermata![DG]2 F(F/G/) (3AG3/2F/ | %8
"_accel."!<(! EE/F/ (!>!GD) ^CD/!<)!E/ !>!F/E/D | %9
!f!"_rit."!>(! !///-!!^![A,^CE]2 E,2 !///-![A,CE]2 E,2!>)! || %10
!pp! [F,=CF]2 z (!>![F,CF] [E,B,D]2) z (!>![E,B,D] | %11
 [B,DE]2) z ([B,E] .[G,D]) z"^ten." !tenuto![A,D] z | %12
 !tenuto![_E,B,_E]2 z E"_allargando"!<(! [EB][C_Gc]!<)! !fermata![_DF_d]2 | %13
!p!"_colla parte" [_A,C_A]2 [G,CG][A,C_E] [A,DF][F,=B,D] !fermata![=E,G,C]2 || %14
!f!"_meno mosso" (!tenuto![G,CG]2 !tenuto![_B,D_B]2 !tenuto![B,DF]2 !tenuto![A,DA]2) | %15
"_accel."!<(! E(E/F/) (GE) D(D/!<)!E/)"^ten."!>(! .F/"_rit.".E/.D!>)! | %16
 [G,CG]2 !fermata![DG]2 F>G (A/GF/) | %17
"_accel."!<(! EE/F/{/D} (!>!G!<)!D) ^C(D/E/)"_rit." !>!F/.E/.D | %18
"^allargando"!<(! !///-![A,^CE]2 E,2 !///-![A,CE]2 E,2!<)! | %19
!ff! !>![F,=CF]2 z z/ (3[F,CF]/4[F,CF]/4[F,CF]/4 !>![F,B,D]2 z z/ (3[B,D]/4[B,D]/4[B,D]/4 | %20
 !>![B,DG]2 z z/ (3[B,E]/4[B,E]/4[B,E]/4 !tenuto![B,D] z !tenuto![A,D] z | %21
 !^![_E,B,_E]2- [E,B,E] z/ (3E/4E/4E/4 !>![B,EB]!>![C_Gc]"_colla parte" [_DF_d]2 | %22
 [_A,C_A]2 !fermata!c/B/A [G,_DG]/!fermata![F,DF][E,B,E]/!<(! !///-!!fermata![_A,CF] F,!<)! | %23
 [F_Acf]4 !fermata!z4 |] %24
V:3
!ped! !///-![F,,,C,,]3 F,,3- [F,,,C,,F,,]!ped-up! z | !tenuto![F,,,F,,]2 z2 !tenuto![G,,,G,,]2 z2 | %2
 !tenuto![G,,G,]2 z2 .[E,,,E,,] z [F,,,F,,]2 |!ped! .[G,,,G,,]2 z!ped-up! _E, G,[G,A,] [^F,A,]G, | %4
 z [D,,,D,,] [E,,,E,,][A,,,A,,] D,,!fermata![G,,,G,,] [C,,C,]2 || %5
 (!tenuto![C,G,]2 !tenuto![G,,D,G,]2 !tenuto![B,,F,]2 !tenuto![F,,D,]2) | %6
 [A,,E,]2 [E,,=B,,E,]2 F,,2 G,,2 | [C,_E,]2 !fermata![G,,D,]2 [G,,^C,]2 [F,,D,]2 | %8
 G,,2 [F,,,F,,]2 [E,,,E,,]2 !>![D,,,D,,]2 | !///-!!^!A,,,2 A,,2 !///-!A,,,2 A,,2 || %10
 [A,,,A,,]2 z (!>!A,, G,,2) z (!>!G,, | G,2) z (G, .E,,) z !tenuto!F,, z | %12
({G,,,_E,,)} G,,2 z _E, [E,G,][_A,,_G,] !fermata![_D,F,]2 | %13
 [=D,,,=D,,]2 [_E,,,_E,,][_A,,,_A,,] [F,,,F,,][G,,,G,,] !fermata![C,,C,]2 || %14
 (!tenuto![C,_E,]2 !tenuto![G,,D,G,]2 !tenuto![B,,F,]2 !tenuto![F,,D,]2) | %15
 [A,,E,]2 [E,,=B,,E,]2 F,,2 G,,2 | [C,_E,]2 !fermata![G,,D,]2 [G,,^C,]2 [F,,D,]2 | %17
 G,, z [B,,,B,,]2 [A,,,A,,]2 [D,,,A,,,D,,]2 |!ped! !///-!A,,,,2 A,,,2 !///-!A,,,,2 A,,,2!ped-up! | %19
!ped! !>![A,,,F,,A,,]2 z!ped-up! z/ (3[A,,,A,,]/4[A,,,A,,]/4[A,,,A,,]/4!ped! !>![G,,,G,,]2 z!ped-up! z/ (3[G,,,G,,]/4[G,,,G,,]/4[G,,,G,,]/4 | %20
!ped! !>![E,,,E,,]2 z!ped-up! z/ (3[G,,,G,,]/4[G,,,G,,]/4[G,,,G,,]/4 !tenuto![E,,,E,,] z !tenuto![F,,,F,,] z | %21
 !^![G,,,_E,,G,,]2- [G,,,E,,G,,] z/ (3_E,/4E,/4E,/4 !>![E,G,][_A,,E,_G,] [_D,,A,,_D,F,]2 | %22
 [=D,,,=D,,]2 !fermata![=E,,,=E,,][F,,,F,,] [B,,,,B,,,]!fermata![C,,,C,,]!ped! !///-!!fermata!F,,, F,, | %23
 [F,,C,F,]4!ped-up! !fermata!z4 |] %24
V:4
 x8 | x8 | x8 | x6 DD | [A,FA]=B, [G,C][A,CE] [A,C]!fermata![F,B,] x2 || x8 | %6
 [A,C] z [G,=B,]2 [A,C] z [G,B,]2 | x2 (3:2:2C _B,2 B,2 A,2 | [B,D]2 B,2 A,2 [F,^G,]2 | x8 || x8 | %11
 x8 | x8 | x8 || x8 | [A,C] z [G,=B,]2 [A,C] z [G,B,]2 | x2 (3:2:2C _B,2 B,2 A,2 | %17
 [B,D]2 G,2 G,2 [F,^G,]2 | x8 | x8 | x8 | x8 | x2 [CG][CF] x4 | x8 |] %24

